packages/calcite-ui-icons/icons/zoning-parameter-16.svg

<?xml version="1.0" encoding="UTF-8"?><svg id="icons" xmlns="http://www.w3.org/2000/svg" viewBox="0 0 16 16"><rect width="16" height="16" style="fill:none;"/><path d="M5.33478,9.96729c-.3429.34399-.68524.68854-1.02783,1.03271H1.72711c1.4082-1.41772,2.8158-2.83588,4.22992-4.25l1.80273-1.80273c1.08447-1.08447,2.15936-2.17407,3.24023-3.26044v2.59399c-.65033.6524-1.29572,1.30786-1.94727,1.95941l-1.25586,1.25586h.33301c.289,0,.55664.1272.74359.33746l.88629-.88629c.4151-.4151.82568-.83264,1.24023-1.24799v2.30072h1V1c0-.55273-.44733-1-1-1H1C.44733,0,0,.44727,0,1v10c0,.55267.44733,1,1,1h4.02582c.03473-.69763.13348-1.37952.30896-2.03271ZM1,1h1.29297l-1.04297,1.04297c-.08362.08362-.16644.16754-.25.25116v-1.29413ZM1,3.71161c.31964-.32013.63708-.64166.95703-.96161l1.75-1.75h2.57825c-.41193.41278-.82013.82782-1.23254,1.24023l-1.80273,1.80273c-.75244.75244-1.49957,1.50751-2.25,2.26068v-2.59204ZM1,7.72107c.98572-.99042,1.96844-1.98248,2.95703-2.97107l1.80273-1.80273c.64771-.64771,1.28882-1.29895,1.93524-1.94727h2.57788c-1.07404,1.07971-2.14264,2.16272-3.22015,3.24023l-1.80273,1.80273c-1.42133,1.42133-2.83521,2.84583-4.25,4.2702v-2.5921ZM14.1756,15.99121c.51727-.96967.82831-2.17792.82831-3.49121,0-1.55591-.43365-2.96747-1.13422-4.00439h1.1507c.61505,1.12213.97455,2.50458.97455,4.00439,0,1.2785-.26038,2.47083-.71942,3.49121h-1.09991ZM6.72449,15.99121c-.45905-1.02039-.71942-2.21271-.71942-3.49121,0-1.49982.3595-2.88226.97455-4.00439h1.1507c-.70056,1.03693-1.13422,2.44849-1.13422,4.00439,0,1.31329.31104,2.52155.82831,3.49121h-1.09991ZM12.32703,15l-1.34473-1.69574-1.3443,1.69574h-1.276l1.98224-2.50037-1.98218-2.49963h1.27606l1.34399,1.69501,1.34375-1.69501h1.276l-1.98169,2.49969,1.9826,2.50031h-1.27576Z"/></svg>

<svg xmlns="http://www.w3.org/2000/svg" viewBox="0 0 16 16"><path fill="none" d="M0 0h16v16H0z"/><path d="M5.335 9.967L4.307 11h-2.58c1.408-1.418 2.816-2.836 4.23-4.25L7.76 4.947C8.844 3.863 9.92 2.773 11 1.687V4.28c-.65.652-1.296 1.308-1.947 1.96L7.797 7.495h.333a.99.99 0 0 1 .743.338l.887-.887c.415-.415.825-.832 1.24-1.248V8h1V1a1 1 0 0 0-1-1H1a1 1 0 0 0-1 1v10a1 1 0 0 0 1 1h4.026a9.69 9.69 0 0 1 .309-2.033zM1 1h1.293L1.25 2.043 1 2.294V1zm0 2.712c.32-.32.637-.642.957-.962L3.707 1h2.578c-.412.413-.82.828-1.232 1.24L3.25 4.043c-.752.752-1.5 1.507-2.25 2.26v-2.59zm0 4.01c.986-.991 1.968-1.983 2.957-2.972L5.76 2.947C6.407 2.3 7.049 1.648 7.695 1h2.578C9.199 2.08 8.13 3.163 7.053 4.24L5.25 6.043C3.829 7.464 2.415 8.889 1 10.313V7.721zm13.176 8.27c.517-.97.828-2.179.828-3.492 0-1.556-.434-2.967-1.134-4.004h1.15c.615 1.122.975 2.504.975 4.004 0 1.278-.26 2.47-.72 3.491h-1.1zm-7.452 0c-.459-1.021-.719-2.214-.719-3.492 0-1.5.36-2.882.975-4.004h1.15c-.7 1.037-1.134 2.448-1.134 4.004 0 1.313.311 2.522.828 3.491h-1.1zM12.327 15l-1.345-1.696L9.638 15H8.362l1.982-2.5L8.362 10h1.276l1.344 1.695L12.326 10h1.276l-1.982 2.5 1.983 2.5h-1.276z"/></svg>
